X:14
T:Burt Feintuch
R:jig
C:Kinnon Beaton
O:20th century Scottish pipe tune
B:100 Orignal Fiddle Tunes (Kinnon Beaton,2003)
D:Cape Breton Fiddle and Piano Music, The Beaton Family of Mabou
Z:Paul Stewart Cranford (P.S.C.), <http://www.cranfordpub.com>
L:1/8
M:6/8
Q:300
K:D
A|d3 fed|BGB A3|aba afd|c2 e efe|
d3 fed|BGB A3|aba afd|cec d2:|
|:g|f a2 afd|gab afd|aba afd|Ace gfe|
[1{f/g/}a3 afd|gab afd|aba afd|cec d2:|
[2d3 fed|BGB A3|aba afd|cec d2|]
